X:1
T:Under His Wings
T:Under His Wings
T:Tali Esen Morgan
T:Johnson Oatman, Jr., 1900
T:Public Domain Courtesy of the Cyber Hymnal™
T:Public Domain Courtesy of the Cyber Hymnal™
C:Tali Esen Morgan
Z:Public Domain
Z:Courtesy of the Cyber Hymnal™
%%score ( 1 2 ) ( 3 4 )
L:1/8
Q:1/4=140
M:6/4
K:Ab
V:1 treble 
V:2 treble 
V:3 bass 
V:4 bass 
V:1
 E2 | [Ec]3 [Ec] [Ec]2 [CA]2 [DB]2 [Ec]2 | [DB]6 [DF]4 [DF]2 | %3
w: 1.~A|won- der- ful prom- ise God’s|giv- en, What|
w: 2.~How|oft- en in dark nights of|sor- row My|
w: 3.~And|when I have need of re-|fresh- ing, He|
w: 4.~When,|like all the ran- somed im-|mor- tals, My|
 [=DF]3 [DB] [DB]2 [DB]2 [DB]2 [Dc]2 | [DB]6- [DB]4 [DE]2 | [Cc]3 [Ec] [Ec]2 [_Gc]2 [Gd]2 [Gc]2 | %6
w: joy to the Chris- tian it|brings; * That|all who are striv- ing for|
w: spir- it to Him looks and|sings, * Be-|cause I find hope for the|
w: leads me to life- giv- ing|springs; * And|there I re- ceive a great|
w: soul to that Ci- ty He|brings, * I’ll|find that those glor- i- ous|
 [FB]6 F4 [Fd]2 | [Ec]4"^riten." [CA]2 [=DB]2 [DF]2 [_DG]2 | [CA]6- [CA]4 z2 || %9
w: Hea- ven Find|re- fuge un- der His|wings. *|
w: mor- row, While|rest- ing un- der His|wings. *|
w: bless- ing, While|shield- ed un- der His|wings. *|
w: por- tals Are|en- tered un- der His|wings. *|
"^Refrain" [Ec]3 [=D=B] [Ec]2 [CE]4 [EA]2 | [EA]6 [EG]6 | [Ed]3 [Ec] [Ed]2 [DF]4 [DG]2 | %12
w: |||
w: Un- der His wings a-|bid- ing,|Un- der His wings I’m|
w: |||
w: |||
 [DF]6 [CE]6 | [EA]3 [EG] [EA]2 [GB]4 [GB]2 | [GB]2 [FA]2 [GB]2 !fermata![Ac]4 [Ad]2 | %15
w: |||
w: hid- ing;|He with His mer- cy|co- vers my soul, I’m|
w: |||
w: |||
 [Ac]4"^riten." [FA]2 [FB]2 F2 [EG]2 | [EA]6- [EA]4 |] %17
w: ||
w: hid- ing un- der His|wings. *|
w: ||
w: ||
V:2
 E2 | x12 | x12 | x12 | x12 | x12 | x6 F4 x2 | x12 | x12 || x12 | x12 | x12 | x12 | x12 | x12 | %15
 x8 F2 x2 | x10 |] %17
V:3
 E,2 | [A,,A,]3 [A,,A,] [A,,A,]2 [A,,A,]2 [A,,A,]2 [A,,A,]2 | [D,F,]6 [D,A,]4 [D,A,]2 | %3
w: ~|~ ~ ~ ~ ~ ~|~ ~ ~|
 [B,,B,]3 [B,,F,] [B,,F,]2 [B,,A,]2 [B,,A,]2 [B,,A,]2 | [E,G,]6- [E,G,]4 [E,G,]2 | %5
w: ~ ~ ~ ~ ~ ~|~ * ~|
 [A,,A,]3 [A,,A,] [A,,A,]2 [A,,E]2 [B,,E]2 [C,E]2 | [D,D]6 [D,D]4 [D,A,]2 | %7
w: ~ ~ ~ ~ ~ ~|~ ~ ~|
 [E,A,]4 F,2 [B,,F,]2 [B,,B,]2 [E,B,]2 | [A,,A,]6- [A,,A,]4 z2 || A,3 A, A,2 [A,,A,]4 [C,A,]2 | %10
w: ~ ~ ~ ~ ~|~ *|~ ~ ~ ~ a-|
 C2 B,2 C2 D4 C2 | [E,B,]3 [E,=A,] [E,B,]2 [E,B,]4 [E,B,]2 | (B,2 F,2 G,2) [A,,A,]6 | %13
w: bid- ing, a- bid- ing|||
 [A,C]3 [A,B,] [A,C]2 [E,E]4 [E,D]2 | [E,D]2 [F,C]2 [E,E]2 [A,E]4 [D,F]2 | %15
w: ||
 [E,E]4 [F,C]2 [B,,=D]2 [B,,D]2 [E,_D]2 | [A,,C]6- [A,,C]4 |] %17
w: ||
V:4
 E,2 | x12 | x12 | x12 | x12 | x12 | x12 | x4 F,2 x6 | x12 || A,3 A, A,2 x6 | E,6 E,6 | x12 | %12
 A,,6 x6 | x12 | x12 | x12 | x10 |] %17

